X:5
T:Cliffs of Moher
M:6/8
L:1/8
K:Am
"Am"a2 a bag|eaf "G"ged|"Am"c2 A BAG|"F"EFG "G"ABd|
"Am"e2 a bag|eaf "G"ged|"Am"c2 A "G"BAG|"Em"EFG "Am"A3:|:
"Am"efe dBA|eze dBA|"G"GAB dBA|GAB d3|
1"Am"efe dBA|eze dBA|"G"GAB dBG|"Em"BAG "Am"A3:|
2 "Am"efe dee|cee Bee|"Em"efg bag|edB "Am"A3||
